packages/icons/src/arrow-up-arrow-down-small.svg

<svg width="24" height="24" viewBox="0 0 24 24" fill="none" xmlns="http://www.w3.org/2000/svg">
<path d="M15.3443 15.1887L15.3443 6.93378H16.8443L16.8443 15.2003L19.1052 12.9393L20.1659 13.9999L16.1 18.0658L12.0342 13.9999L13.0948 12.9393L15.3443 15.1887Z" fill="black"/>
<path d="M8.65589 8.81095L8.65589 17.0659H7.15589L7.15589 8.79937L4.89489 11.0604L3.83423 9.9997L7.90009 5.93384L11.966 9.9997L10.9053 11.0604L8.65589 8.81095Z" fill="black"/>
</svg>

<svg xmlns="http://www.w3.org/2000/svg" width="24" height="24" fill="none" viewBox="0 0 24 24">
  <path fill="#000" d="M15.344 15.189V6.934h1.5V15.2l2.261-2.26 1.06 1.06-4.065 4.066L12.034 14l1.06-1.06 2.25 2.249ZM8.656 8.81v8.256h-1.5V8.799L4.895 11.06 3.835 10 7.9 5.934 11.966 10l-1.06 1.06-2.25-2.25Z"/>
</svg>
